outputs/icons/general/link_add_round.svg

<svg xmlns="http://www.w3.org/2000/svg" width="1200" height="1200" fill="none"><path fill="#000" d="M400 600c0-27.615 22.386-50 50-50h300c27.615 0 50 22.385 50 50s-22.385 50-50 50H450c-27.614 0-50-22.385-50-50m604.5-12.5c.555 6.885 6.095 12.5 13 12.5h70c6.905 0 12.535-5.605 12.195-12.5C1093.175 455.3 983.81 350 850 350H697.5c-26.235 0-47.5 21.267-47.5 47.5s21.265 47.5 47.5 47.5H850c81.295 0 148.12 62.83 154.5 142.5M195 600c0-85.5 69.5-155 155-155h152.5c26.235 0 47.5-21.267 47.5-47.5S528.735 350 502.5 350H350c-138 0-250 112-250 250s112 250 250 250h152.5c26.235 0 47.5-21.265 47.5-47.5S528.735 755 502.5 755H350c-85.5 0-155-69.5-155-155m755 50c0-27.615-22.385-50-50-50s-50 22.385-50 50v100H750c-27.615 0-50 22.385-50 50s22.385 50 50 50h100v100c0 27.615 22.385 50 50 50s50-22.385 50-50V850h100c27.615 0 50-22.385 50-50s-22.385-50-50-50H950z"/></svg>

<svg width="1200" height="1200" viewBox="0 0 1200 1200" fill="none" xmlns="http://www.w3.org/2000/svg"><path d="M400 600C400 572.385 422.386 550 450 550H750C777.615 550 800 572.385 800 600C800 627.615 777.615 650 750 650H450C422.386 650 400 627.615 400 600ZM1004.5 587.5C1005.055 594.385 1010.595 600 1017.5 600H1087.5C1094.405 600 1100.035 594.395 1099.695 587.5C1093.175 455.3 983.81 350 850 350H697.5C671.265 350 650 371.267 650 397.5C650 423.733 671.265 445 697.5 445H850C931.295 445 998.12 507.83 1004.5 587.5ZM195 600C195 514.5 264.5 445 350 445H502.5C528.735 445 550 423.733 550 397.5C550 371.267 528.735 350 502.5 350H350C212 350 100 462 100 600C100 738 212 850 350 850H502.5C528.735 850 550 828.735 550 802.5C550 776.265 528.735 755 502.5 755H350C264.5 755 195 685.5 195 600ZM950 650C950 622.385 927.615 600 900 600C872.385 600 850 622.385 850 650V750H750C722.385 750 700 772.385 700 800C700 827.615 722.385 850 750 850H850V950C850 977.615 872.385 1000 900 1000C927.615 1000 950 977.615 950 950V850H1050C1077.615 850 1100 827.615 1100 800C1100 772.385 1077.615 750 1050 750H950V650Z" fill="black"/></svg>
